X: 241a
T: Mrs. Crowleys
M:2/4
L:1/8
K:G
"G"DG "C"EG/E/|"G"DG "C"EG/E/|"G"DG "D"AG/A/|"G"BA "D"A2|
"G"DG "C"EG/E/|"G"DG "C"EG/E/|"G"DG "D"AG/A/|"G"BG G2:|
"G"dB gB|dB gB|dB gB|"D7"cA AB/c/|
"G"dB gB|dB gB|GB "D"A>B|"G"AG G2:|


